src/icons/svg/user-group.svg

<svg width="40px" height="34.99875px" viewBox="0 0 40 34.99875" version="1.1" xmlns="http://www.w3.org/2000/svg">
    <path d="M21.8125,21.03125 C25.255,19.10625 27.605,15.47125 27.605,11.25125 C27.6056904,5.03804656 22.5694534,0.000690355937 16.35625,0 C10.1430466,-0.000690355937 5.10569036,5.03554656 5.105,11.24875 C5.105,15.43625 7.4225,19.04625 10.8175,20.98375 C4.525,23.03875 0,28.53625 0,34.99875 L2.5,34.99875 C2.5,28.16875 8.6675,22.61125 16.2475,22.61125 C23.83,22.61125 30,28.16875 30,34.99875 L32.5,34.99875 C32.5,28.58375 28.0375,23.11875 21.8125,21.03125 Z M7.605,11.24875 C7.605,6.42375 11.53,2.49875 16.3525,2.49875 C21.175,2.49875 25.105,6.42375 25.105,11.24875 C25.105,16.07375 21.18,19.99875 16.3525,19.99875 C11.5232693,19.9918621 7.61050791,16.0779825 7.605,11.24875 L7.605,11.24875 Z M40,27.49875 L37.5,27.49875 C37.4998238,22.3226627 33.5330654,18.0103073 28.375,17.57875 C28.8938495,16.6228878 29.2983026,15.6092375 29.58,14.55875 C31.5085724,13.675698 32.6696043,11.6714036 32.4761469,9.55911887 C32.2826895,7.44683416 30.7768936,5.68678595 28.72,5.16875 C28.2624829,4.23357853 27.6996703,3.35371195 27.0425,2.54625 C27.1975,2.53625 27.3425,2.49875 27.5,2.49875 C31.635,2.49875 35,5.86375 35,9.99875 C35,12.38625 33.88,14.51375 32.1375,15.88875 C36.8819824,17.7916679 39.9939451,22.3868841 40,27.49875 Z"
          id="形状"></path>
</svg>

<svg width="40" height="34.999" xmlns="http://www.w3.org/2000/svg"><path d="M21.813 21.031c3.442-1.925 5.792-5.56 5.792-9.78C27.605 5.038 22.569.001 16.356 0 10.143 0 5.106 5.036 5.105 11.249c0 4.187 2.317 7.797 5.713 9.735C4.525 23.039 0 28.536 0 34.999h2.5c0-6.83 6.168-12.388 13.747-12.388C23.83 22.611 30 28.17 30 35h2.5c0-6.415-4.462-11.88-10.688-13.968zM7.604 11.25c0-4.825 3.925-8.75 8.747-8.75 4.823 0 8.753 3.925 8.753 8.75s-3.925 8.75-8.753 8.75a8.76 8.76 0 0 1-8.747-8.75zM40 27.499h-2.5a9.955 9.955 0 0 0-9.125-9.92 13.85 13.85 0 0 0 1.205-3.02 4.997 4.997 0 0 0-.86-9.39 13.675 13.675 0 0 0-1.677-2.623c.155-.01.3-.047.457-.047 4.135 0 7.5 3.365 7.5 7.5a7.488 7.488 0 0 1-2.862 5.89A12.525 12.525 0 0 1 40 27.499z"/></svg>
